assets/img/canvix-header-logo.svg

<svg width="155" height="40" viewBox="0 0 155 40" fill="none" xmlns="http://www.w3.org/2000/svg">
<path d="M62.3436 11.0675C61.5036 11.0675 60.7336 11.2775 60.0336 11.6975C59.3336 12.0975 58.7236 12.6775 58.2036 13.4375C57.7036 14.1975 57.3136 15.1175 57.0336 16.1975C56.7736 17.2575 56.6436 18.4475 56.6436 19.7675C56.6436 21.1275 56.7836 22.3475 57.0636 23.4275C57.3436 24.4875 57.7336 25.3975 58.2336 26.1575C58.7536 26.9175 59.3936 27.4975 60.1536 27.8975C60.9136 28.2775 61.7736 28.4675 62.7336 28.4675C63.7736 28.4675 64.6836 28.2175 65.4636 27.7175C66.2636 27.2175 66.9336 26.5275 67.4736 25.6475C68.0136 24.7475 68.4036 23.7275 68.6436 22.5875L70.6836 23.3975C70.3636 24.8175 69.8336 26.0875 69.0936 27.2075C68.3536 28.3075 67.4036 29.1675 66.2436 29.7875C65.1036 30.4075 63.7436 30.7175 62.1636 30.7175C60.6236 30.7175 59.2036 30.4575 57.9036 29.9375C56.6236 29.3975 55.5136 28.6475 54.5736 27.6875C53.6336 26.7075 52.9036 25.5475 52.3836 24.2075C51.8636 22.8675 51.6036 21.3875 51.6036 19.7675C51.6036 18.1475 51.8736 16.6675 52.4136 15.3275C52.9536 13.9875 53.6936 12.8375 54.6336 11.8775C55.5736 10.8975 56.6536 10.1475 57.8736 9.62748C59.1136 9.08748 60.4336 8.81748 61.8336 8.81748C63.2336 8.81748 64.4036 9.04748 65.3436 9.50748C66.2836 9.96748 67.0436 10.6075 67.6236 11.4275C68.2236 12.2275 68.6936 13.1675 69.0336 14.2475L67.6236 14.0375L68.1636 9.11748H70.3236V15.7475H67.8336C67.5336 14.7875 67.1436 13.9675 66.6636 13.2875C66.1836 12.5875 65.5936 12.0475 64.8936 11.6675C64.1936 11.2675 63.3436 11.0675 62.3436 11.0675ZM82.8638 21.1775L82.8338 22.8575C82.0538 22.9575 81.3538 23.0775 80.7338 23.2175C80.1138 23.3575 79.5738 23.5375 79.1138 23.7575C78.6738 23.9575 78.3038 24.1975 78.0038 24.4775C77.7238 24.7375 77.5038 25.0375 77.3438 25.3775C77.2038 25.7175 77.1338 26.0875 77.1338 26.4875C77.1338 26.9475 77.2238 27.3475 77.4038 27.6875C77.5838 28.0075 77.8338 28.2575 78.1538 28.4375C78.4738 28.5975 78.8438 28.6775 79.2638 28.6775C79.8038 28.6775 80.2938 28.5375 80.7338 28.2575C81.1738 27.9775 81.5638 27.5775 81.9038 27.0575C82.2438 26.5375 82.5338 25.9375 82.7738 25.2575L82.8338 27.2975C82.5338 28.0175 82.1438 28.6375 81.6638 29.1575C81.2038 29.6575 80.6438 30.0475 79.9838 30.3275C79.3238 30.5875 78.5738 30.7175 77.7338 30.7175C76.7538 30.7175 75.8938 30.5675 75.1538 30.2675C74.4138 29.9475 73.8338 29.4875 73.4138 28.8875C73.0138 28.2675 72.8138 27.5275 72.8138 26.6675C72.8138 25.8275 73.0238 25.1075 73.4438 24.5075C73.8838 23.9075 74.5238 23.3975 75.3638 22.9775C76.2038 22.5375 77.2438 22.1775 78.4838 21.8975C79.7438 21.5975 81.2038 21.3575 82.8638 21.1775ZM82.4738 30.4175V27.3875H82.1438V19.4975C82.1438 18.8575 82.0438 18.3375 81.8438 17.9375C81.6638 17.5375 81.3938 17.2575 81.0338 17.0975C80.6738 16.9175 80.2238 16.8275 79.6838 16.8275C78.8638 16.8275 78.1938 17.0075 77.6738 17.3675C77.1538 17.7075 76.7438 18.1175 76.4438 18.5975C76.3238 18.3775 76.2638 18.1775 76.2638 17.9975C76.2638 17.7975 76.3138 17.6175 76.4138 17.4575C76.5338 17.2775 76.6838 17.1275 76.8638 17.0075C77.0638 16.8875 77.2838 16.7975 77.5238 16.7375V19.9175H73.8338V16.7075C74.1338 16.4875 74.5638 16.2275 75.1238 15.9275C75.6838 15.6275 76.3838 15.3675 77.2238 15.1475C78.0638 14.9075 79.0338 14.7875 80.1338 14.7875C81.0338 14.7875 81.8738 14.8875 82.6538 15.0875C83.4338 15.2675 84.1138 15.5575 84.6938 15.9575C85.2938 16.3575 85.7538 16.8875 86.0738 17.5475C86.4138 18.1875 86.5838 18.9775 86.5838 19.9175V27.7175C86.5838 27.9575 86.6538 28.1475 86.7938 28.2875C86.9538 28.4075 87.1638 28.4975 87.4238 28.5575C87.7038 28.6175 88.0238 28.6575 88.3838 28.6775L88.4738 28.7075V30.4175H82.4738ZM89.7118 30.4175V28.7675H89.7418C90.1018 28.7675 90.4218 28.7375 90.7018 28.6775C91.0018 28.6175 91.2318 28.5175 91.3918 28.3775C91.5518 28.2375 91.6318 28.0475 91.6318 27.8075V17.9975C91.6318 17.7375 91.5718 17.5475 91.4518 17.4275C91.3318 17.3075 91.1518 17.2075 90.9118 17.1275C90.6718 17.0275 90.3618 16.9375 89.9818 16.8575L89.7118 16.7975V15.0875H95.8318V18.3575L96.1618 18.4775V28.4675C96.1618 28.5275 96.2518 28.5875 96.4318 28.6475C96.6118 28.6875 96.8218 28.7175 97.0618 28.7375C97.3218 28.7575 97.5618 28.7675 97.7818 28.7675H97.8718V30.4175H89.7118ZM108.132 30.4175H99.9718V28.7675H100.032C100.232 28.7675 100.462 28.7575 100.722 28.7375C100.982 28.7175 101.202 28.6875 101.382 28.6475C101.582 28.5875 101.682 28.5275 101.682 28.4675V19.9175C101.682 19.3175 101.612 18.8375 101.472 18.4775C101.352 18.0975 101.152 17.8175 100.872 17.6375C100.592 17.4575 100.212 17.3675 99.7318 17.3675C99.1918 17.3675 98.6718 17.4975 98.1718 17.7575C97.6918 18.0175 97.2418 18.4075 96.8218 18.9275C96.4018 19.4475 95.9918 20.0975 95.5918 20.8775L95.5618 18.3875C96.0018 17.6075 96.4918 16.9575 97.0318 16.4375C97.5918 15.8975 98.2218 15.4875 98.9218 15.2075C99.6218 14.9275 100.392 14.7875 101.232 14.7875C102.252 14.7875 103.132 14.9775 103.872 15.3575C104.612 15.7175 105.182 16.2775 105.582 17.0375C106.002 17.7775 106.212 18.7175 106.212 19.8575V27.8075C106.212 28.0475 106.292 28.2375 106.452 28.3775C106.612 28.5175 106.832 28.6175 107.112 28.6775C107.392 28.7375 107.712 28.7675 108.072 28.7675H108.132V30.4175ZM121.944 17.3675C121.924 17.2475 121.804 17.1375 121.584 17.0375C121.384 16.9375 121.134 16.8675 120.834 16.8275C120.534 16.7675 120.214 16.7375 119.874 16.7375H119.814V15.0875H125.784V16.7375H125.724C125.484 16.7375 125.244 16.7775 125.004 16.8575C124.764 16.9175 124.554 17.0475 124.374 17.2475C124.194 17.4275 124.044 17.6775 123.924 17.9975L119.424 30.4175H115.014L110.394 17.7575C110.314 17.4775 110.184 17.2675 110.004 17.1275C109.844 16.9875 109.644 16.8875 109.404 16.8275C109.184 16.7675 108.914 16.7375 108.594 16.7375H108.534V15.0875H116.964V16.7375H116.904C116.564 16.7375 116.224 16.7475 115.884 16.7675C115.544 16.7875 115.264 16.8175 115.044 16.8575C114.824 16.8775 114.714 16.9275 114.714 17.0075L118.704 28.3475L118.164 27.9575L121.944 17.3675ZM130.941 12.5675C130.161 12.5675 129.531 12.3675 129.051 11.9675C128.591 11.5675 128.361 11.0075 128.361 10.2875C128.361 9.58748 128.591 9.04748 129.051 8.66748C129.531 8.26748 130.161 8.06748 130.941 8.06748C131.721 8.06748 132.341 8.26748 132.801 8.66748C133.281 9.04748 133.521 9.58748 133.521 10.2875C133.521 11.0075 133.281 11.5675 132.801 11.9675C132.341 12.3675 131.721 12.5675 130.941 12.5675ZM133.311 15.0875V27.8075C133.311 28.1875 133.491 28.4475 133.851 28.5875C134.211 28.7075 134.651 28.7675 135.171 28.7675H135.201V30.4175H126.861V28.7675H126.891C127.431 28.7675 127.871 28.7075 128.211 28.5875C128.571 28.4475 128.751 28.1875 128.751 27.8075V17.9975C128.751 17.6375 128.621 17.3875 128.361 17.2475C128.101 17.1075 127.681 16.9775 127.101 16.8575L126.831 16.7975V15.0875H133.311ZM153.173 30.4175H144.473V28.7675H144.533C144.873 28.7675 145.203 28.7575 145.523 28.7375C145.843 28.7175 146.113 28.6875 146.333 28.6475C146.553 28.6075 146.663 28.5575 146.663 28.4975L142.673 23.4275L142.583 23.3375L138.113 17.5475C137.953 17.3275 137.793 17.1675 137.633 17.0675C137.473 16.9475 137.293 16.8675 137.093 16.8275C136.893 16.7875 136.633 16.7675 136.313 16.7675H136.283V15.0875H144.893V16.7375H144.833C144.513 16.7375 144.193 16.7475 143.873 16.7675C143.573 16.7875 143.323 16.8175 143.123 16.8575C142.923 16.8775 142.823 16.9175 142.823 16.9775L146.633 21.8975L146.753 22.0175L151.193 27.7475C151.393 27.9675 151.573 28.1575 151.733 28.3175C151.913 28.4775 152.113 28.5975 152.333 28.6775C152.553 28.7375 152.823 28.7675 153.143 28.7675H153.173V30.4175ZM136.103 30.4175V28.7675H136.133C136.393 28.7675 136.633 28.7275 136.853 28.6475C137.093 28.5675 137.313 28.4475 137.513 28.2875C137.733 28.1075 137.943 27.8875 138.143 27.6275L142.583 22.3175L144.173 23.3075L140.213 28.1675C140.213 28.2875 140.303 28.3975 140.483 28.4975C140.683 28.5775 140.933 28.6475 141.233 28.7075C141.533 28.7475 141.833 28.7675 142.133 28.7675H142.193V30.4175H136.103ZM146.543 23.0375L145.043 21.9275L148.793 17.3375C148.793 17.2175 148.703 17.1175 148.523 17.0375C148.343 16.9375 148.113 16.8675 147.833 16.8275C147.553 16.7675 147.263 16.7375 146.963 16.7375H146.873V15.0875H152.843V16.7375H152.813C152.533 16.7375 152.273 16.7875 152.033 16.8875C151.793 16.9675 151.563 17.1075 151.343 17.3075C151.143 17.5075 150.903 17.7675 150.623 18.0875L146.543 23.0375Z" fill="white"/>
<g clip-path="url(#clip0_121_1279)">
<path d="M20.2651 16.3475C19.5068 16.3685 18.7662 16.46 18.0492 16.6147C15.0806 17.4583 12.9023 20.167 12.9023 23.3694C12.9023 27.244 16.0911 30.3962 20.0105 30.3962C23.93 30.3962 27.1187 27.244 27.1187 23.3694C27.1188 19.5791 24.0671 16.4805 20.2651 16.3475Z" fill="#FBFBFB"/>
<path d="M34.3069 5.86846C30.4879 2.09334 25.4105 0.0142822 20.0099 0.0142822C14.6093 0.0142822 9.53185 2.09334 5.71304 5.86846C2.87894 8.67005 0.990937 12.1572 0.205078 15.9513C2.86236 11.1823 7.99701 7.94361 13.883 7.94361C22.4057 7.94361 29.3532 14.7332 29.4844 23.1281C29.4865 23.2083 29.4875 23.2888 29.4875 23.3695C29.4875 28.5357 25.2358 32.7387 20.0099 32.7387C14.7839 32.7387 10.5323 28.5356 10.5323 23.3695C10.5323 22.7347 10.5968 22.1146 10.719 21.5149C9.40905 23.4111 8.64198 25.7015 8.64198 28.166C8.64198 34.5901 13.8517 39.8338 20.3139 39.9857C25.6007 39.9091 30.5597 37.8394 34.3067 34.1351C38.1256 30.36 40.2288 25.3407 40.2288 20.0018C40.2288 14.6629 38.1256 9.64365 34.3069 5.86846Z" fill="#FBFBFB"/>
<path d="M23.8981 14.8256C21.4693 12.0471 17.8801 10.2858 13.8825 10.2858C6.58472 10.2858 0.647461 16.1551 0.647461 23.3694C0.647461 25.1954 1.0255 26.9734 1.7534 28.615C2.73171 30.6376 4.06138 32.5029 5.71254 34.135C6.85567 35.265 8.11229 36.2418 9.45585 37.0576C7.46598 34.6249 6.27214 31.5308 6.27214 28.1658C6.27214 21.4159 11.0729 15.7544 17.4761 14.3406C18.2828 14.1191 19.1323 14.0002 20.0094 14.0002C20.0998 14.0002 20.1898 14.0018 20.2796 14.0043C20.3867 14.0019 20.494 14.0002 20.6017 14.0002V14.019C21.7699 14.0907 22.8816 14.3717 23.8981 14.8256Z" fill="#FBFBFB"/>
</g>
<defs>
<clipPath id="clip0_121_1279">
<rect width="40.4341" height="39.9714" fill="white" transform="translate(0 0.0142822)"/>
</clipPath>
</defs>
</svg>

<svg xmlns="http://www.w3.org/2000/svg" width="155" height="40" fill="none"><path fill="#fff" d="M62.344 11.068c-.84 0-1.61.21-2.31.63-.7.4-1.31.98-1.83 1.74-.5.76-.89 1.68-1.17 2.76-.26 1.06-.39 2.25-.39 3.57 0 1.36.14 2.58.42 3.66.28 1.06.67 1.97 1.17 2.73.52.76 1.16 1.34 1.92 1.74.76.38 1.62.57 2.58.57 1.04 0 1.95-.25 2.73-.75.8-.5 1.47-1.19 2.01-2.07.54-.9.93-1.92 1.17-3.06l2.04.81c-.32 1.42-.85 2.69-1.59 3.81a7.844 7.844 0 0 1-2.85 2.58c-1.14.62-2.5.93-4.08.93-1.54 0-2.96-.26-4.26-.78a10.1 10.1 0 0 1-3.33-2.25c-.94-.98-1.67-2.14-2.19-3.48-.52-1.34-.78-2.82-.78-4.44 0-1.62.27-3.1.81-4.44.54-1.34 1.28-2.49 2.22-3.45a9.75 9.75 0 0 1 3.24-2.25 9.81 9.81 0 0 1 3.96-.81c1.4 0 2.57.23 3.51.69.94.46 1.7 1.1 2.28 1.92.6.8 1.07 1.74 1.41 2.82l-1.41-.21.54-4.92h2.16v6.63h-2.49c-.3-.96-.69-1.78-1.17-2.46a5.06 5.06 0 0 0-1.77-1.62c-.7-.4-1.55-.6-2.55-.6Zm20.52 10.11-.03 1.68c-.78.1-1.48.22-2.1.36-.62.14-1.16.32-1.62.54-.44.2-.81.44-1.11.72-.28.26-.5.56-.66.9-.14.34-.21.71-.21 1.11 0 .46.09.86.27 1.2.18.32.43.57.75.75.32.16.69.24 1.11.24.54 0 1.03-.14 1.47-.42.44-.28.83-.68 1.17-1.2.34-.52.63-1.12.87-1.8l.06 2.04c-.3.72-.69 1.34-1.17 1.86-.46.5-1.02.89-1.68 1.17-.66.26-1.41.39-2.25.39-.98 0-1.84-.15-2.58-.45-.74-.32-1.32-.78-1.74-1.38-.4-.62-.6-1.36-.6-2.22 0-.84.21-1.56.63-2.16.44-.6 1.08-1.11 1.92-1.53.84-.44 1.88-.8 3.12-1.08 1.26-.3 2.72-.54 4.38-.72Zm-.39 9.24v-3.03h-.33v-7.89c0-.64-.1-1.16-.3-1.56-.18-.4-.45-.68-.81-.84-.36-.18-.81-.27-1.35-.27-.82 0-1.49.18-2.01.54-.52.34-.93.75-1.23 1.23-.12-.22-.18-.42-.18-.6 0-.2.05-.38.15-.54.12-.18.27-.33.45-.45.2-.12.42-.21.66-.27v3.18h-3.69v-3.21c.3-.22.73-.48 1.29-.78.56-.3 1.26-.56 2.1-.78.84-.24 1.81-.36 2.91-.36.9 0 1.74.1 2.52.3.78.18 1.46.47 2.04.87.6.4 1.06.93 1.38 1.59.34.64.51 1.43.51 2.37v7.8c0 .24.07.43.21.57.16.12.37.21.63.27.28.06.6.1.96.12l.09.03v1.71h-6Zm7.238 0v-1.65h.03c.36 0 .68-.03.96-.09.3-.06.53-.16.69-.3.16-.14.24-.33.24-.57v-9.81c0-.26-.06-.45-.18-.57-.12-.12-.3-.22-.54-.3-.24-.1-.55-.19-.93-.27l-.27-.06v-1.71h6.12v3.27l.33.12v9.99c0 .06.09.12.27.18.18.04.39.07.63.09.26.02.5.03.72.03h.09v1.65h-8.16Zm18.42 0h-8.16v-1.65h.06c.2 0 .43-.01.69-.03.26-.02.48-.05.66-.09.2-.06.3-.12.3-.18v-8.55c0-.6-.07-1.08-.21-1.44-.12-.38-.32-.66-.6-.84-.28-.18-.66-.27-1.14-.27-.54 0-1.06.13-1.56.39-.48.26-.93.65-1.35 1.17-.42.52-.83 1.17-1.23 1.95l-.03-2.49c.44-.78.93-1.43 1.47-1.95.56-.54 1.19-.95 1.89-1.23s1.47-.42 2.31-.42c1.02 0 1.9.19 2.64.57.74.36 1.31.92 1.71 1.68.42.74.63 1.68.63 2.82v7.95c0 .24.08.43.24.57.16.14.38.24.66.3s.6.09.96.09h.06v1.65Zm13.812-13.05c-.02-.12-.14-.23-.36-.33-.2-.1-.45-.17-.75-.21-.3-.06-.62-.09-.96-.09h-.06v-1.65h5.97v1.65h-.06c-.24 0-.48.04-.72.12-.24.06-.45.19-.63.39-.18.18-.33.43-.45.75l-4.5 12.42h-4.41l-4.62-12.66c-.08-.28-.21-.49-.39-.63-.16-.14-.36-.24-.6-.3-.22-.06-.49-.09-.81-.09h-.06v-1.65h8.43v1.65h-.06c-.34 0-.68.01-1.02.03-.34.02-.62.05-.84.09-.22.02-.33.07-.33.15l3.99 11.34-.54-.39 3.78-10.59Zm8.997-4.8c-.78 0-1.41-.2-1.89-.6-.46-.4-.69-.96-.69-1.68 0-.7.23-1.24.69-1.62.48-.4 1.11-.6 1.89-.6.78 0 1.4.2 1.86.6.48.38.72.92.72 1.62 0 .72-.24 1.28-.72 1.68-.46.4-1.08.6-1.86.6Zm2.37 2.52v12.72c0 .38.18.64.54.78.36.12.8.18 1.32.18h.03v1.65h-8.34v-1.65h.03c.54 0 .98-.06 1.32-.18.36-.14.54-.4.54-.78v-9.81c0-.36-.13-.61-.39-.75s-.68-.27-1.26-.39l-.27-.06v-1.71h6.48Zm19.862 15.33h-8.7v-1.65h.06c.34 0 .67-.01.99-.03.32-.02.59-.05.81-.09.22-.04.33-.09.33-.15l-3.99-5.07-.09-.09-4.47-5.79a1.81 1.81 0 0 0-.48-.48c-.16-.12-.34-.2-.54-.24-.2-.04-.46-.06-.78-.06h-.03v-1.68h8.61v1.65h-.06c-.32 0-.64.01-.96.03-.3.02-.55.05-.75.09-.2.02-.3.06-.3.12l3.81 4.92.12.12 4.44 5.73c.2.22.38.41.54.57.18.16.38.28.6.36.22.06.49.09.81.09h.03v1.65Zm-17.07 0v-1.65h.03c.26 0 .5-.04.72-.12.24-.08.46-.2.66-.36.22-.18.43-.4.63-.66l4.44-5.31 1.59.99-3.96 4.86c0 .12.09.23.27.33.2.08.45.15.75.21.3.04.6.06.9.06h.06v1.65h-6.09Zm10.44-7.38-1.5-1.11 3.75-4.59c0-.12-.09-.22-.27-.3-.18-.1-.41-.17-.69-.21-.28-.06-.57-.09-.87-.09h-.09v-1.65h5.97v1.65h-.03c-.28 0-.54.05-.78.15-.24.08-.47.22-.69.42-.2.2-.44.46-.72.78l-4.08 4.95Z"/><g fill="#FBFBFB" clip-path="url(#a)"><path d="M20.265 16.348c-.758.02-1.499.112-2.216.267-2.968.843-5.147 3.552-5.147 6.754 0 3.875 3.19 7.027 7.109 7.027s7.108-3.152 7.108-7.027c0-3.79-3.052-6.889-6.854-7.021Z"/><path d="M34.307 5.868C30.487 2.093 25.41.014 20.01.014S9.532 2.094 5.713 5.868C2.879 8.67.991 12.158.205 15.951a15.644 15.644 0 0 1 13.678-8.007c8.523 0 15.47 6.79 15.601 15.184.002.08.003.16.003.241 0 5.167-4.251 9.37-9.477 9.37s-9.478-4.203-9.478-9.37c0-.634.065-1.254.187-1.854a11.662 11.662 0 0 0-2.077 6.651c0 6.424 5.21 11.668 11.672 11.82 5.287-.077 10.246-2.147 13.993-5.85 3.819-3.776 5.922-8.795 5.922-14.134 0-5.34-2.103-10.358-5.922-14.134Z"/><path d="M23.898 14.826a13.274 13.274 0 0 0-10.015-4.54c-7.298 0-13.236 5.87-13.236 13.083 0 1.826.379 3.604 1.106 5.246a20.008 20.008 0 0 0 3.96 5.52 20.333 20.333 0 0 0 3.743 2.923 13.998 13.998 0 0 1-3.184-8.892c0-6.75 4.8-12.412 11.204-13.825a9.556 9.556 0 0 1 2.804-.337c.107-.002.214-.004.322-.004v.019a9.5 9.5 0 0 1 3.296.807Z"/></g><defs><clipPath id="a"><path fill="#fff" d="M0 .014h40.434v39.971H0z"/></clipPath></defs></svg>
